shader turbulance (
	color Cin=1,
	output float mag=0,
	output	color Cout=1
	)
{
    float i;
    float freq=1;

    for(i=0;i<6;i+=1)
		{
			mag+=abs((float)noise("perlin",P*freq))/freq;
			freq*=2.1;
		}
    Cout=mag;
    mag=smoothstep(0.2, 0.8, mag);
}

